X: 21856
T: Kishkeam Lasses, The
R: slide
M: 12/8
K: Dmajor
|:A|d2d ded c2E EFG|ABA A2G F2D DFA|
d2d ded c2E EFG|ABA GFE d3 d2:|
|:e|f2d d2c d2f agf|e2A A2c e2f gfe|
f2d d2c d2f agf|e2A ABc d3 d2:|

